!!!OTL: Abschied / (Andere Leseart.)
!!!ARE: Europa, Mitteleuropa, Deutschland
!!!SCT: A0258
!!!TXL: @@GMH
!!!YEM: Copyright 1995, estate of Helmut Schaffrath.
**kern	**text
*M4/2	*
*met(c|)	*
*clefC3	*
*k[]	*
=1	=1
!LO:TX:a:t=jon.	!
{1c	Ent-
1c	-laubt
=2	=2
2B	iſt
1c	vns
2d	der
=3	=3
1B	wal-
1G}	-de
=4	=4
{1d	gen
1e	di-
=5	=5
2d	-ſem
1c	win-
4B	.
4A	.
=6	=6
2B	.
2c/	.
1A	-ter
=7	=7
1G	kalt.}
!LO:TX:a:t=P:1r,:| 2r 2g in the source:problem	!
!LO:N:vis=1	!
1r}	.
=8	=8
{1c	Be-
1c	-rau-
=9	=9
2B	-bet
1c	wirt
2d	ich
=10	=10
1B	bal-
1G}	-de
=11	=11
{1d	meins
1e	lieb,
=12	=12
2d	das
1c	macht
4B	.
4A	.
=13	=13
2B	.
2c/	.
1A	mich
=14	=14
1G	alt.}
2r}	.
{2g	Daß
=15	=15
2f	ich
2e	die
1d	ſchön
=16	=16
2c	muß
1f	mei-
4e	.
4d	.
=17	=17
1e	.
2d}	-den,
{2d	die
=18	=18
1g	mir
2f	ge-
2.e	-fal-
=19	=19
.	.
4d	.
1d	.
2c	-len
=20	=20
1d	thut,
2r}	.
{2G	bringt
=21	=21
2c	mir
2d	mang-
2e	-fal-
2f	-tig
=22	=22
1g	lei-
1d}	-den,
=23	=23
{1f	macht
1e	mir
=24	=24
2d	ein
1g	ſchwe-
4f	.
4e	.
=25	=25
4f	.
4e	.
4d	.
4c	.
2d	.
2d	-ren
=26	=26
0cll}	mut.
==	==
!!!GTL: Abschieds- und Wanderlieder
!!!AGN: Romanze, Ballade, Lied
!! Forster I 1539 No. 61.
!!!ONB: ESAC (Essen Associative Code) Database: ALTDEU
!!!AMT: simple quadruple
!!!AIN: vox
!!!EED: Helmut Schaffrath
!!!EEV: 1.0
!!!RDF**kern: l = terminal long
!!!AMD: Ionian
!!!URL-scan: https://rosdok.uni-rostock.de/mcrviewer/recordIdentifier/rosdok_ppn738218359/iview2/phys_0408.iview2?x=-495.6391625615763&y=616.9241379401647&scale=0.4629418472063854&rotation=0&layout=singlePageLayout&logicalDiv=log_0010
!!!ENC: Anna Maria Matuszewska
!!!EEV: 2024/11/03
*-	*-
